assets/ios/swift/Icons.xcassets/threads.imageset/threads.svg

<svg width="24" height="24" viewBox="0 0 24 24" fill="none" xmlns="http://www.w3.org/2000/svg">
<path d="M7 10C6.71667 10 6.47917 9.90417 6.2875 9.7125C6.09583 9.52083 6 9.28333 6 9C6 8.71667 6.09583 8.47917 6.2875 8.2875C6.47917 8.09583 6.71667 8 7 8H17C17.2833 8 17.5208 8.09583 17.7125 8.2875C17.9042 8.47917 18 8.71667 18 9C18 9.28333 17.9042 9.52083 17.7125 9.7125C17.5208 9.90417 17.2833 10 17 10H7Z" fill="black"/>
<path d="M7 14C6.71667 14 6.47917 13.9042 6.2875 13.7125C6.09583 13.5208 6 13.2833 6 13C6 12.7167 6.09583 12.4792 6.2875 12.2875C6.47917 12.0958 6.71667 12 7 12H13C13.2833 12 13.5208 12.0958 13.7125 12.2875C13.9042 12.4792 14 12.7167 14 13C14 13.2833 13.9042 13.5208 13.7125 13.7125C13.5208 13.9042 13.2833 14 13 14H7Z" fill="black"/>
<path d="M3.70711 21.2929C3.07714 21.9229 2 21.4767 2 20.5858V5C2 3.89543 2.89543 3 4 3H20C21.1046 3 22 3.89543 22 5V17C22 18.1046 21.1046 19 20 19H6L3.70711 21.2929ZM6 17H20V5H4V18.1716L4.58579 17.5858C4.96086 17.2107 5.46957 17 6 17Z" fill="black"/>
</svg>

<svg xmlns="http://www.w3.org/2000/svg" width="24" height="24" fill="black" viewBox="0 0 24 24">
  <path d="M7 10a.968.968 0 0 1-.713-.287A.968.968 0 0 1 6 9c0-.283.096-.52.287-.713A.968.968 0 0 1 7 8h10a.97.97 0 0 1 .712.287c.192.192.288.43.288.713s-.096.52-.288.713A.968.968 0 0 1 17 10H7Zm0 4a.967.967 0 0 1-.713-.287A.968.968 0 0 1 6 13c0-.283.096-.52.287-.713A.967.967 0 0 1 7 12h6c.283 0 .52.096.713.287.191.192.287.43.287.713s-.096.52-.287.713A.968.968 0 0 1 13 14H7Z"/>
  <path d="M3.707 21.293c-.63.63-1.707.184-1.707-.707V5a2 2 0 0 1 2-2h16a2 2 0 0 1 2 2v12a2 2 0 0 1-2 2H6l-2.293 2.293ZM6 17h14V5H4v13.172l.586-.586A2 2 0 0 1 6 17Z"/>
</svg>
